X:81
T:"Milo Mullins'Reel"
T:[In Memory of Milo Mullins (R.I.P.)]
C:Reel composed by Davy Rogers
L:1/8
Q:200
M:4/4
K:A
FG |: AGAB cBAc | dfcg aecA | EGAB cBAc | dBGA B2cB | AGAB cBAc |
dfcg aecA | fgaf ecAc |1 dBGB A2 FG :|2 dBGB A2 fg |:
agfa ecec | dBfg ecec | fdfa ecec | dBGA B2 fg |
agfg ecec |fedc Bcde | fgaf ecec |1 dBGB A2 fg :|2 dBGB A2 ||



